Newaita-dark/apps/22/com.github.philip-scott.wallpaperize.svg

<svg height="22" viewBox="0 0 22 22" width="22" xmlns="http://www.w3.org/2000/svg" xmlns:xlink="http://www.w3.org/1999/xlink"><linearGradient id="a" gradientUnits="userSpaceOnUse" x1="10.9151136" x2="10.9151136" y1="19.27333515" y2="20.18292842919"><stop offset="0" stop-opacity=".27451"/><stop offset="1" stop-opacity="0"/></linearGradient><linearGradient id="b"><stop offset="0" stop-opacity=".313726"/><stop offset=".222222" stop-opacity=".27451"/><stop offset="1" stop-opacity="0"/></linearGradient><radialGradient id="c" cx="450.908936" cy="189.579361" gradientTransform="matrix(.00000012 -.0537161 -.0966889 -.00000007 36.749413 43.72179)" gradientUnits="userSpaceOnUse" r="21.166656" xlink:href="#b"/><radialGradient id="d" cx="450.908936" cy="189.579361" gradientTransform="matrix(-.00000012 .0537161 .0966889 .00000007 -14.919205 -5.175143)" gradientUnits="userSpaceOnUse" r="21.166656" xlink:href="#b"/><radialGradient id="e" cx="450.908936" cy="189.579361" gradientTransform="matrix(-.00000012 -.0537161 .0966889 -.00000007 -14.919205 43.72179)" gradientUnits="userSpaceOnUse" r="21.166656" xlink:href="#b"/><radialGradient id="f" cx="450.908936" cy="189.579361" gradientTransform="matrix(.00000012 .0537161 -.0966889 .00000007 36.749411 -5.175143)" gradientUnits="userSpaceOnUse" r="21.166656" xlink:href="#b"/><linearGradient id="g" gradientTransform="matrix(.0518029 0 0 .149471 -4.024634 23.128427)" gradientUnits="userSpaceOnUse" x1="306.916656" x2="305.954559" y1="-25.791676" y2="-135.329163"><stop offset="0" stop-color="#f48fb1"/><stop offset="1" stop-color="#9fa8da"/></linearGradient><linearGradient id="h" gradientUnits="userSpaceOnUse" x1="11.042048" x2="11.042048" y1="19.41795959735" y2="4.51205493805"><stop offset="0" stop-color="#424242"/><stop offset="1" stop-color="#757575"/></linearGradient><linearGradient id="i" gradientUnits="userSpaceOnUse" x1="14.55346278578" x2="13.64387192671" y1="8.35822242954" y2="5.62944843946"><stop offset="0" stop-color="#ffe0b2"/><stop offset="1" stop-color="#fff3e0"/></linearGradient><linearGradient id="j" gradientUnits="userSpaceOnUse" x1="11.042047" x2="11.042047" y1="19.41795959735" y2="4.51205493805"><stop offset="0" stop-color="#9fa8da"/><stop offset="1" stop-color="#c5cae9"/></linearGradient><linearGradient id="k" gradientUnits="userSpaceOnUse" x1="10.915104" x2="10.915104" y1="19.27332401286" y2="2.90066748985"><stop offset="0" stop-color="#bdbdbd"/><stop offset="1" stop-color="#e0e0e0"/></linearGradient><path d="m3.183594 19.273438h15.464844v.910156h-15.464844zm0 0" fill="url(#a)"/><path d="m18.648438 19.273438h1.816406v-.910157h-1.816406zm0 0" fill="url(#c)"/><path d="m3.183594 19.273438h-1.820313v.910156h1.820313zm0 0" fill="url(#d)"/><path d="m3.183594 19.273438h-1.820313v-.910157h1.820313zm0 0" fill="url(#e)"/><path d="m18.648438 19.273438h1.816406v.910156h-1.816406zm0 0" fill="url(#f)"/><path d="m2.273438 2.902344h17.28125c.503906 0 .910156.40625.910156.90625v14.554687c0 .503907-.40625.910157-.910156.910157h-17.28125c-.5 0-.910157-.40625-.910157-.910157v-14.554687c0-.5.410157-.90625.910157-.90625zm0 0" fill="url(#g)"/><path d="m6.449219 8.53125c-.148438 0-.292969.058594-.394531.164062l-4.691407 4.691407v4.976562c0 .503907.40625.910157.910157.910157h17.28125c.503906 0 .910156-.40625.910156-.910157v-5.023437l-3.3125-2.945313c-.234375-.210937-.597656-.1875-.804688.050781l-3.613281 4.128907-5.875-5.878907c-.109375-.109374-.257813-.167968-.410156-.164062zm0 0" fill="url(#h)"/><path d="m2.273438 19.28125c-.503907 0-.910157-.40625-.910157-.910156v-.234375c0 .503906.40625.910156.910157.910156h17.28125c.503906 0 .910156-.40625.910156-.910156v.234375c0 .503906-.40625.910156-.910156.910156zm0 0" fill-opacity=".235294"/><path d="m2.273438 2.953125c-.503907 0-.910157.40625-.910157.910156v.109375c0-.503906.40625-.910156.910157-.910156h17.28125c.503906 0 .910156.40625.910156.910156v-.109375c0-.503906-.40625-.910156-.910156-.910156zm0 0" fill="#fff" fill-opacity=".392157"/><path d="m15.179688 5.492188c-.550782 0-1.03125.285156-1.304688.71875.183594-.082032.382812-.125.597656-.125.800782 0 1.445313.644531 1.445313 1.445312 0 .382812-.148438.730469-.394531.992188.683593-.15625 1.191406-.765626 1.191406-1.496094 0-.851563-.6875-1.535156-1.535156-1.535156zm0 0" fill="url(#i)"/><path d="m2.273438 2.902344c-.503907 0-.910157.402344-.910157.90625v5.636718c4.410157-1.269531 9.535157-1.996093 15.007813-1.996093 1.390625 0 2.757812.046875 4.09375.136719v-3.777344c0-.503906-.40625-.90625-.910156-.90625zm0 0" fill="#fff" fill-opacity=".117647"/><path d="m6.449219 8.53125c-.148438 0-.292969.058594-.394531.164062l-2.238282 2.238282.632813.746094c.285156.285156 1.121093.300781 2.007812-.289063.566407-.5625 1.25-.511719 1.71875 0 .667969.617187 1.269531.574219 1.949219.574219l-3.265625-3.269532c-.109375-.109374-.257813-.167968-.410156-.164062zm10.316406 1.71875c-.152344.003906-.308594.066406-.417969.195312l-1.332031 1.519532h.039063c.101562.21875.144531 1.003906.574218.574218.734375-.734374.859375-.429687 1.144532-.144531.433593.429688.71875.859375 1.148437.71875.714844-.289062.84375-.996093.523437-1.570312l-1.292968-1.148438c-.109375-.097656-.25-.148437-.386719-.144531zm0 0" fill="url(#j)"/><path d="m2.273438 2.902344c-.503907 0-.910157.402344-.910157.90625v14.554687c0 .503907.40625.910157.910157.910157h17.28125c.503906 0 .910156-.40625.910156-.910157v-14.554687c0-.503906-.40625-.90625-.910156-.90625zm.339843.90625h16.601563c.1875 0 .339844.152344.339844.34375v13.871094c0 .1875-.152344.339843-.339844.339843h-16.601563c-.1875 0-.339843-.152343-.339843-.339843v-13.871094c0-.191406.152343-.34375.339843-.34375zm0 0" fill="url(#k)"/><path d="m2.273438 2.902344c-.503907 0-.910157.402344-.910157.90625v.175781c0-.503906.40625-.910156.910157-.910156h17.28125c.503906 0 .910156.40625.910156.910156v-.175781c0-.503906-.40625-.90625-.910156-.90625zm0 15.121094v.171874c0 .191407.152343.34375.339843.34375h16.601563c.1875 0 .339844-.152343.339844-.34375v-.171874c0 .1875-.152344.339843-.339844.339843h-16.601563c-.1875 0-.339843-.152343-.339843-.339843zm0 0" fill="#fff" fill-opacity=".588235"/><path d="m2.613281 3.816406c-.1875 0-.339843.152344-.339843.339844v.164062c0-.1875.152343-.339843.339843-.339843h16.601563c.1875 0 .339844.152343.339844.339843v-.164062c0-.1875-.152344-.339844-.339844-.339844zm-1.25 14.382813v.164062c0 .503907.40625.910157.910157.910157h17.28125c.503906 0 .910156-.40625.910156-.910157v-.164062c0 .503906-.40625.910156-.910156.910156h-17.28125c-.503907 0-.910157-.40625-.910157-.910156zm0 0" fill-opacity=".235294"/><path d="m199.952283 255.265544c-44.31932 0-80.049625 35.386744-80.049625 79.706065v1280.106885c0 44.31932 35.730305 80.049625 80.049625 80.049625h1519.912201c44.319321 0 80.049626-35.730305 80.049626-80.049625v-1280.106885c0-44.319321-35.730305-79.706065-80.049626-79.706065zm29.889775 79.706065h1460.132652c16.49091 0 29.889774 13.398864 29.889774 30.233334v1219.983777c0 16.49091-13.398864 29.889774-29.889774 29.889774h-1460.132652c-16.49091 0-29.889775-13.398864-29.889775-29.889774v-1219.983777c0-16.83447 13.398865-30.233334 29.889775-30.233334zm0 0" fill="none" stroke="#212121" stroke-linecap="round" stroke-width="11.338583" transform="scale(.0113699)"/><path d="m3.636719 4.71875c-.25 0-.453125.203125-.453125.457031v1.816407c0 .128906.101562.230468.226562.230468s.226563-.101562.226563-.230468v-1.589844c0-.125.101562-.226563.230469-.226563h1.136718c.125 0 .226563-.101562.226563-.230469 0-.125-.101563-.226562-.226563-.226562zm2.277343 0c-.128906 0-.230468.101562-.230468.226562 0 .128907.101562.230469.230468.230469h.90625c.128907 0 .230469-.101562.230469-.230469 0-.125-.101562-.226562-.230469-.226562zm1.816407 0c-.125 0-.226563.101562-.226563.226562 0 .128907.101563.230469.226563.230469h.910156c.125 0 .226563-.101562.226563-.230469 0-.125-.101563-.226562-.226563-.226562zm1.820312 0c-.125 0-.226562.101562-.226562.226562 0 .128907.101562.230469.226562.230469h.910157c.125 0 .226562-.101562.226562-.230469 0-.125-.101562-.226562-.226562-.226562zm1.820313 0c-.128906 0-.230469.101562-.230469.226562 0 .128907.101563.230469.230469.230469h.910156c.125 0 .226562-.101562.226562-.230469 0-.125-.101562-.226562-.226562-.226562zm1.816406 0c-.125 0-.226562.101562-.226562.226562 0 .128907.101562.230469.226562.230469h.910156c.128906 0 .226563-.101562.226563-.230469 0-.125-.097657-.226562-.226563-.226562zm1.820312 0c-.125 0-.226562.101562-.226562.226562 0 .128907.101562.230469.226562.230469h.910157c.125 0 .226562-.101562.226562-.230469 0-.125-.101562-.226562-.226562-.226562zm1.820313 0c-.125 0-.226563.101562-.226563.226562 0 .128907.101563.230469.226563.230469h1.136719c.125 0 .226562.101563.226562.226563v1.589844c0 .128906.101563.230468.226563.230468.128906 0 .230469-.101562.230469-.230468v-1.816407c0-.253906-.203126-.457031-.457032-.457031zm-13.417969 2.957031c-.125 0-.226562.101563-.226562.226563v.910156c0 .125.101562.226562.226562.226562s.226563-.101562.226563-.226562v-.910156c0-.125-.101563-.226563-.226563-.226563zm15.007813 0c-.125 0-.226563.101563-.226563.226563v.910156c0 .125.101563.226562.226563.226562.128906 0 .230469-.101562.230469-.226562v-.910156c0-.125-.101563-.226563-.230469-.226563zm-15.007813 1.820313c-.125 0-.226562.101562-.226562.226562v.910156c0 .125.101562.226563.226562.226563s.226563-.101563.226563-.226563v-.910156c0-.125-.101563-.226562-.226563-.226562zm15.007813 0c-.125 0-.226563.101562-.226563.226562v.910156c0 .125.101563.226563.226563.226563.128906 0 .230469-.101563.230469-.226563v-.910156c0-.125-.101563-.226562-.230469-.226562zm-15.007813 1.816406c-.125 0-.226562.101562-.226562.230469v.910156c0 .125.101562.226563.226562.226563s.226563-.101563.226563-.226563v-.910156c0-.128907-.101563-.230469-.226563-.230469zm15.007813 0c-.125 0-.226563.101562-.226563.230469v.910156c0 .125.101563.226563.226563.226563.128906 0 .230469-.101563.230469-.226563v-.910156c0-.128907-.101563-.230469-.230469-.230469zm-15.007813 1.820312c-.125 0-.226562.101563-.226562.226563v.910156c0 .128907.101562.226563.226562.226563s.226563-.097656.226563-.226563v-.910156c0-.125-.101563-.226563-.226563-.226563zm15.007813 0c-.125 0-.226563.101563-.226563.226563v.910156c0 .128907.101563.226563.226563.226563.128906 0 .230469-.097656.230469-.226563v-.910156c0-.125-.101563-.226563-.230469-.226563zm-15.007813 1.820313c-.125 0-.226562.101563-.226562.226563v1.820312c0 .25.203125.453125.453125.453125h1.367187c.125 0 .226563-.101563.226563-.226563s-.101563-.226562-.226563-.226562c0 0 0 0-.003906 0h-1.132812c-.128907 0-.230469-.101562-.230469-.226562v-1.59375c0-.125-.101563-.226563-.226563-.226563zm15.007813 0c-.125 0-.226563.101563-.226563.226563v1.59375c0 .125-.101562.226562-.226562.226562h-1.136719c-.125 0-.226563.101562-.226563.226562s.101563.226563.226563.226563h1.363281c.253906 0 .457032-.203125.457032-.453125v-1.820312c0-.125-.101563-.226563-.230469-.226563zm-12.503907 2.046875c-.128906 0-.230468.101562-.230468.226562s.101562.226563.230468.226563h.90625c.128907 0 .230469-.101563.230469-.226563s-.101562-.226562-.230469-.226562zm1.816407 0c-.125 0-.226563.101562-.226563.226562s.101563.226563.226563.226563h.910156c.125 0 .226563-.101563.226563-.226563s-.101563-.226562-.226563-.226562h-.90625c-.003906 0-.003906 0-.003906 0zm1.820312 0c-.125 0-.226562.101562-.226562.226562s.101562.226563.226562.226563h.910157c.125 0 .226562-.101563.226562-.226563s-.101562-.226562-.226562-.226562zm1.820313 0c-.128906 0-.230469.101562-.230469.226562s.101563.226563.230469.226563h.910156c.125 0 .226562-.101563.226562-.226563s-.101562-.226562-.226562-.226562c-.003906 0-.003906 0-.003906 0zm1.816406 0c-.125 0-.226562.101562-.226562.226562s.101562.226563.226562.226563h.910156c.128906 0 .226563-.101563.226563-.226563s-.097657-.226562-.226563-.226562h-.90625zm1.820312 0c-.125 0-.226562.101562-.226562.226562s.101562.226563.226562.226563h.910157c.125 0 .226562-.101563.226562-.226563s-.101562-.226562-.226562-.226562zm0 0" fill="#fff" fill-opacity=".529412"/></svg>

<?xml version="1.0" encoding="UTF-8"?>
<svg xmlns="http://www.w3.org/2000/svg" xmlns:xlink="http://www.w3.org/1999/xlink" width="22px" height="22px" viewBox="0 0 22 22" version="1.1">
<defs>
<linearGradient id="linear0" gradientUnits="userSpaceOnUse" x1="254" y1="233.5" x2="254" y2="254.666672" gradientTransform="matrix(0.0429729,0,0,0.0429729,-0.00000262285,9.239163)">
<stop offset="0" style="stop-color:rgb(0%,0%,0%);stop-opacity:0.27451;"/>
<stop offset="1" style="stop-color:rgb(0%,0%,0%);stop-opacity:0;"/>
</linearGradient>
<radialGradient id="radial0" gradientUnits="userSpaceOnUse" cx="450.908936" cy="189.579361" fx="450.908936" fy="189.579361" r="21.166656" gradientTransform="matrix(0.000000119742,-0.0537161,-0.0966889,-0.0000000698078,36.749413,43.72179)">
<stop offset="0" style="stop-color:rgb(0%,0%,0%);stop-opacity:0.313726;"/>
<stop offset="0.222222" style="stop-color:rgb(0%,0%,0%);stop-opacity:0.27451;"/>
<stop offset="1" style="stop-color:rgb(0%,0%,0%);stop-opacity:0;"/>
</radialGradient>
<radialGradient id="radial1" gradientUnits="userSpaceOnUse" cx="450.908936" cy="189.579361" fx="450.908936" fy="189.579361" r="21.166656" gradientTransform="matrix(-0.000000119742,0.0537161,0.0966889,0.0000000698078,-14.919205,-5.175143)">
<stop offset="0" style="stop-color:rgb(0%,0%,0%);stop-opacity:0.313726;"/>
<stop offset="0.222222" style="stop-color:rgb(0%,0%,0%);stop-opacity:0.27451;"/>
<stop offset="1" style="stop-color:rgb(0%,0%,0%);stop-opacity:0;"/>
</radialGradient>
<radialGradient id="radial2" gradientUnits="userSpaceOnUse" cx="450.908936" cy="189.579361" fx="450.908936" fy="189.579361" r="21.166656" gradientTransform="matrix(-0.000000119742,-0.0537161,0.0966889,-0.0000000698078,-14.919205,43.72179)">
<stop offset="0" style="stop-color:rgb(0%,0%,0%);stop-opacity:0.313726;"/>
<stop offset="0.222222" style="stop-color:rgb(0%,0%,0%);stop-opacity:0.27451;"/>
<stop offset="1" style="stop-color:rgb(0%,0%,0%);stop-opacity:0;"/>
</radialGradient>
<radialGradient id="radial3" gradientUnits="userSpaceOnUse" cx="450.908936" cy="189.579361" fx="450.908936" fy="189.579361" r="21.166656" gradientTransform="matrix(0.000000119742,0.0537161,-0.0966889,0.0000000698078,36.749411,-5.175143)">
<stop offset="0" style="stop-color:rgb(0%,0%,0%);stop-opacity:0.313726;"/>
<stop offset="0.222222" style="stop-color:rgb(0%,0%,0%);stop-opacity:0.27451;"/>
<stop offset="1" style="stop-color:rgb(0%,0%,0%);stop-opacity:0;"/>
</radialGradient>
<linearGradient id="linear1" gradientUnits="userSpaceOnUse" x1="306.916656" y1="-25.791676" x2="305.954559" y2="-135.329163" gradientTransform="matrix(0.0518029,0,0,0.149471,-4.024634,23.128427)">
<stop offset="0" style="stop-color:rgb(36.078432%,41.960785%,75.294119%);stop-opacity:1;"/>
<stop offset="1" style="stop-color:rgb(47.450981%,52.549022%,79.607844%);stop-opacity:1;"/>
</linearGradient>
<linearGradient id="linear2" gradientUnits="userSpaceOnUse" x1="960" y1="1295.118164" x2="960" y2="255.118118" gradientTransform="matrix(0.0143326,0,0,0.0143326,-2.717248,0.855549)">
<stop offset="0" style="stop-color:rgb(25.882354%,25.882354%,25.882354%);stop-opacity:1;"/>
<stop offset="1" style="stop-color:rgb(38.039216%,38.039216%,38.039216%);stop-opacity:1;"/>
</linearGradient>
<linearGradient id="linear3" gradientUnits="userSpaceOnUse" x1="306.916656" y1="-25.791676" x2="305.954559" y2="-135.329163" gradientTransform="matrix(0.0518029,0,0,0.149471,-4.024634,23.128426)">
<stop offset="0" style="stop-color:rgb(99.215686%,99.215686%,99.215686%);stop-opacity:0.235294;"/>
<stop offset="1" style="stop-color:rgb(100%,100%,100%);stop-opacity:0.196078;"/>
</linearGradient>
<linearGradient id="linear4" gradientUnits="userSpaceOnUse" x1="301.625" y1="-84" x2="301.625" y2="-136.916672" gradientTransform="matrix(0.0541706,0,0,0.0541706,-2.143944,13.919934)">
<stop offset="0" style="stop-color:rgb(100%,65.490198%,14.901961%);stop-opacity:1;"/>
<stop offset="1" style="stop-color:rgb(100%,71.764708%,30.19608%);stop-opacity:1;"/>
</linearGradient>
<linearGradient id="linear5" gradientUnits="userSpaceOnUse" x1="960" y1="1295.118164" x2="960" y2="255.118118" gradientTransform="matrix(0.0143326,0,0,0.0143326,-2.717249,0.855549)">
<stop offset="0" style="stop-color:rgb(56.470591%,64.313728%,68.235296%);stop-opacity:1;"/>
<stop offset="1" style="stop-color:rgb(69.01961%,74.509805%,77.254903%);stop-opacity:1;"/>
</linearGradient>
</defs>
<g id="surface1">
<path style=" stroke:none;fill-rule:nonzero;fill:url(#linear0);" d="M 3.183594 19.273438 L 18.648438 19.273438 L 18.648438 20.183594 L 3.183594 20.183594 Z M 3.183594 19.273438 "/>
<path style=" stroke:none;fill-rule:nonzero;fill:url(#radial0);" d="M 18.648438 19.273438 L 20.464844 19.273438 L 20.464844 18.363281 L 18.648438 18.363281 Z M 18.648438 19.273438 "/>
<path style=" stroke:none;fill-rule:nonzero;fill:url(#radial1);" d="M 3.183594 19.273438 L 1.363281 19.273438 L 1.363281 20.183594 L 3.183594 20.183594 Z M 3.183594 19.273438 "/>
<path style=" stroke:none;fill-rule:nonzero;fill:url(#radial2);" d="M 3.183594 19.273438 L 1.363281 19.273438 L 1.363281 18.363281 L 3.183594 18.363281 Z M 3.183594 19.273438 "/>
<path style=" stroke:none;fill-rule:nonzero;fill:url(#radial3);" d="M 18.648438 19.273438 L 20.464844 19.273438 L 20.464844 20.183594 L 18.648438 20.183594 Z M 18.648438 19.273438 "/>
<path style=" stroke:none;fill-rule:nonzero;fill:url(#linear1);" d="M 2.273438 2.902344 L 19.554688 2.902344 C 20.058594 2.902344 20.464844 3.308594 20.464844 3.808594 L 20.464844 18.363281 C 20.464844 18.867188 20.058594 19.273438 19.554688 19.273438 L 2.273438 19.273438 C 1.773438 19.273438 1.363281 18.867188 1.363281 18.363281 L 1.363281 3.808594 C 1.363281 3.308594 1.773438 2.902344 2.273438 2.902344 Z M 2.273438 2.902344 "/>
<path style=" stroke:none;fill-rule:nonzero;fill:url(#linear2);" d="M 6.449219 8.53125 C 6.300781 8.53125 6.15625 8.589844 6.054688 8.695312 L 1.363281 13.386719 L 1.363281 18.363281 C 1.363281 18.867188 1.769531 19.273438 2.273438 19.273438 L 19.554688 19.273438 C 20.058594 19.273438 20.464844 18.867188 20.464844 18.363281 L 20.464844 13.339844 L 17.152344 10.394531 C 16.917969 10.183594 16.554688 10.207031 16.347656 10.445312 L 12.734375 14.574219 L 6.859375 8.695312 C 6.75 8.585938 6.601562 8.527344 6.449219 8.53125 Z M 6.449219 8.53125 "/>
<path style=" stroke:none;fill-rule:nonzero;fill:rgb(0%,0%,0%);fill-opacity:0.235294;" d="M 2.273438 19.28125 C 1.769531 19.28125 1.363281 18.875 1.363281 18.371094 L 1.363281 18.136719 C 1.363281 18.640625 1.769531 19.046875 2.273438 19.046875 L 19.554688 19.046875 C 20.058594 19.046875 20.464844 18.640625 20.464844 18.136719 L 20.464844 18.371094 C 20.464844 18.875 20.058594 19.28125 19.554688 19.28125 Z M 2.273438 19.28125 "/>
<path style=" stroke:none;fill-rule:nonzero;fill:url(#linear3);" d="M 2.273438 2.902344 C 1.769531 2.902344 1.363281 3.304688 1.363281 3.808594 L 1.363281 18.363281 C 1.363281 18.867188 1.769531 19.273438 2.273438 19.273438 L 19.554688 19.273438 C 20.058594 19.273438 20.464844 18.867188 20.464844 18.363281 L 20.464844 3.808594 C 20.464844 3.304688 20.058594 2.902344 19.554688 2.902344 Z M 5.457031 5.628906 L 16.371094 5.628906 C 16.875 5.628906 17.28125 6.035156 17.28125 6.539062 L 17.28125 15.636719 C 17.28125 16.140625 16.875 16.542969 16.371094 16.542969 L 5.457031 16.542969 C 4.953125 16.542969 4.546875 16.140625 4.546875 15.636719 L 4.546875 6.539062 C 4.546875 6.035156 4.953125 5.628906 5.457031 5.628906 Z M 5.457031 5.628906 "/>
<path style=" stroke:none;fill-rule:nonzero;fill:rgb(100%,100%,100%);fill-opacity:0.392157;" d="M 2.273438 2.953125 C 1.769531 2.953125 1.363281 3.359375 1.363281 3.863281 L 1.363281 3.972656 C 1.363281 3.46875 1.769531 3.0625 2.273438 3.0625 L 19.554688 3.0625 C 20.058594 3.0625 20.464844 3.46875 20.464844 3.972656 L 20.464844 3.863281 C 20.464844 3.359375 20.058594 2.953125 19.554688 2.953125 Z M 2.273438 2.953125 "/>
<path style=" stroke:none;fill-rule:nonzero;fill:rgb(12.941177%,12.941177%,12.941177%);fill-opacity:1;" d="M 2.273438 2.835938 C 1.734375 2.835938 1.300781 3.273438 1.300781 3.808594 L 1.300781 18.363281 C 1.300781 18.902344 1.734375 19.335938 2.273438 19.335938 L 19.554688 19.335938 C 20.09375 19.335938 20.53125 18.902344 20.53125 18.363281 L 20.53125 3.808594 C 20.53125 3.273438 20.09375 2.835938 19.554688 2.835938 Z M 2.273438 2.964844 L 19.554688 2.964844 C 20.027344 2.964844 20.402344 3.339844 20.402344 3.808594 L 20.402344 18.363281 C 20.402344 18.832031 20.027344 19.207031 19.554688 19.207031 L 2.273438 19.207031 C 1.804688 19.207031 1.429688 18.832031 1.429688 18.363281 L 1.429688 3.808594 C 1.429688 3.339844 1.804688 2.964844 2.273438 2.964844 Z M 2.273438 2.964844 "/>
<path style=" stroke:none;fill-rule:nonzero;fill:url(#linear4);" d="M 14.195312 6.503906 C 14.988281 6.503906 15.628906 7.144531 15.628906 7.9375 C 15.628906 8.726562 14.988281 9.371094 14.195312 9.371094 C 13.402344 9.371094 12.761719 8.726562 12.761719 7.9375 C 12.761719 7.144531 13.402344 6.503906 14.195312 6.503906 Z M 14.195312 6.503906 "/>
<path style=" stroke:none;fill-rule:nonzero;fill:url(#linear5);" d="M 6.449219 8.53125 C 6.300781 8.53125 6.15625 8.589844 6.054688 8.695312 L 3.816406 10.933594 L 4.449219 11.679688 C 4.734375 11.964844 5.570312 11.980469 6.457031 11.390625 C 7.023438 10.828125 7.707031 10.878906 8.175781 11.390625 C 8.84375 12.007812 9.445312 11.964844 10.125 11.964844 L 6.859375 8.695312 C 6.75 8.585938 6.601562 8.527344 6.449219 8.53125 Z M 16.765625 10.25 C 16.613281 10.253906 16.457031 10.316406 16.347656 10.445312 L 15.015625 11.964844 L 15.054688 11.964844 C 15.15625 12.183594 15.199219 12.96875 15.628906 12.539062 C 16.363281 11.804688 16.488281 12.109375 16.773438 12.394531 C 17.207031 12.824219 17.492188 13.253906 17.921875 13.113281 C 18.636719 12.824219 18.765625 12.117188 18.445312 11.542969 L 17.152344 10.394531 C 17.042969 10.296875 16.902344 10.246094 16.765625 10.25 Z M 16.765625 10.25 "/>
<path style="fill:none;stroke-width:3;stroke-linecap:round;stroke-linejoin:round;stroke:rgb(12.941177%,12.941177%,12.941177%);stroke-opacity:1;stroke-miterlimit:4;" d="M 126.987873 -84.012509 L 380.96362 -84.012509 C 392.689773 -84.012509 402.143415 -74.558866 402.143415 -62.832713 L 402.143415 148.874343 C 402.143415 160.509595 392.689773 169.963238 380.96362 169.963238 L 126.987873 169.963238 C 115.352621 169.963238 105.808078 160.509595 105.808078 148.874343 L 105.808078 -62.832713 C 105.808078 -74.558866 115.352621 -84.012509 126.987873 -84.012509 Z M 126.987873 -84.012509 " transform="matrix(0.0429729,0,0,0.0429729,0,9.239163)"/>
</g>
</svg>
